!!!OTL: MEMORY
!!!ARE: Europa, Mitteleuropa, Deutschland, Rheinland
!!!SCT: U0002
!!!YEM: Copyright 1995, estate of Helmut Schaffrath.
**kern
*ICvox
*Ivox
*M6/8
*k[f#c#]
*b:
{4.ddn
[4.ddn
8ddn]
8cc#
8ddn
8ee
8ddn
8b
=1
4.ddn
[4.ddn
8ddn]}
{8cc#
8ddn
8ee
8.ddn
16an
=2
4.b
[4.b
8b]}
{8gn
8an
8b
8an
8gn
=3
[2.f#
4.f#]}
{4f#
8an
=4
4.an
4e
8f#
8gn
8an}
{8b
8cc#
=5
8ddn
8cc#
8b
[4.an
4.an]}
{4f#
8dn
=6
[4.an
[4.an]
4an]
8B
4B
8dn
=7
2.dn}
==
!! PopulÑr, mÅhsam eingetippt von Ulrich Franzke...
!!!AMT: compound duple
!!!AIN: vox
!!!EED: Helmut Schaffrath
!!!EEV: 1.0
*-
